X:838
M:C|
L:1/8
K:A
g|a2ed cAec|Bcde fBbg|a2ed cAec|dfec A/A/A A:|
e|cAEA cAec|Bcde fBfd|cAEA cAec|dfec A/A/A Ae|cAEA cAec|

